icons/skaffolder.svg

<?xml version="1.0" encoding="UTF-8"?>
<svg width="512px" height="77px" viewBox="0 0 512 77" version="1.1" xmlns="http://www.w3.org/2000/svg" xmlns:xlink="http://www.w3.org/1999/xlink" preserveAspectRatio="xMidYMid">
    <g>
				<path d="M135.203396,23.7893019 C141.847908,23.7893019 146.691571,26.0714123 149.967253,29.8283559 L149.967253,25.1709878 L164.839782,25.1709878 L164.839782,74.7253844 L149.967253,74.7253844 L149.967253,70.0680163 C146.691571,73.8404845 141.847908,76.1070703 135.203396,76.1070703 C122.224864,76.1070703 111.512917,64.712043 111.512917,49.9481861 C111.512917,35.1843292 122.209339,23.7893019 135.203396,23.7893019 Z M379.187386,5.34612426 L379.187386,74.7098599 L364.314857,74.7098599 L364.314857,70.0524918 C361.039175,73.8249599 356.195512,76.0915457 349.551001,76.0915457 C336.572468,76.0915457 325.860522,64.6965184 325.860522,49.9326616 C325.860522,35.1688047 336.556944,23.7737774 349.551001,23.7737774 C356.195512,23.7737774 361.039175,26.0558877 364.314857,29.8128314 L364.314857,5.34612426 L379.187386,5.34612426 Z M273.154639,23.6185318 C287.483808,23.6185318 299.003032,34.8272643 299.003032,49.3582528 C299.003032,63.8892413 287.499333,75.0979739 273.154639,75.0979739 C258.82547,75.0979739 247.321771,63.8892413 247.321771,49.3582528 C247.321771,34.8272643 258.82547,23.6185318 273.154639,23.6185318 Z M26.1588842,2.66037532 C37.5539115,2.66037532 46.4805337,8.109496 51.5260158,18.3246567 L38.1438448,26.1490351 C35.768587,21.1967004 32.4929048,18.1228374 26.1588842,18.1228374 C21.2065494,18.1228374 18.7226198,20.6067671 18.7226198,23.3701388 C18.7226198,26.5371491 20.4147968,28.7261121 31.2043663,31.9862698 L31.8363971,32.1769706 C32.4697466,32.3684358 33.106739,32.5624461 33.744554,32.7612717 L34.3825388,32.9617866 C34.4888804,32.9955013 34.5952189,33.0293708 34.701541,33.0634055 L35.3391734,33.2696816 C44.5789753,36.291884 53.4976349,40.7242686 53.4976349,53.4877859 C53.4976349,66.8699569 42.8012129,74.7875087 27.7268648,74.7875087 C13.1803517,74.8030072 3.86561552,67.8635287 0,57.6638926 L13.6771377,49.7308423 C16.1610673,55.4749296 20.4147968,59.3405451 28.2391753,59.3405451 C35.768587,59.3405451 37.6470588,56.3753541 37.6470588,53.6896052 C37.6470588,49.4358756 33.6882959,47.7436985 23.2713159,44.8716549 C12.9785324,41.9996112 2.87204366,37.0472765 2.87204366,23.7737774 C2.87204366,10.3916064 14.1739236,2.66037532 26.1588842,2.66037532 Z M411.944209,22.4697143 C426.413099,22.4697143 437.109521,33.6629223 437.109521,48.6285985 C437.109521,50.7088896 436.907702,52.6960333 436.519588,54.5745051 L401.340934,54.5745051 C403.23493,59.7441837 407.783626,61.5295081 413.232747,61.5295081 C417.300182,61.5295081 420.762159,59.946003 422.749303,57.75704 L434.641116,64.5878465 C429.781928,71.3255057 422.454336,74.7874827 413.030928,74.7874827 C396.078108,74.7874827 385.583505,63.3924554 385.583505,48.6285985 C385.583505,33.8647416 396.279927,22.4697143 411.944209,22.4697143 Z M205.483081,0.0832983013 L205.483081,15.1421218 C199.630321,14.6142868 195.764706,16.3996112 195.764706,22.4541898 L205.483081,22.4541898 L205.483081,37.5130133 L195.764706,37.5130133 L195.764706,74.7253844 L180.0849,74.7253844 L180.0849,37.5130133 L173.083323,37.5130133 L173.083323,22.4541898 L180.0849,22.4541898 C180.0849,7.81452935 188.126622,-0.956847241 205.483081,0.0832983013 Z M244.977562,0.0832983013 L244.977562,15.1421218 C239.124803,14.6142868 235.259187,16.3996112 235.259187,22.4541898 L244.977562,22.4541898 L244.977562,37.5130133 L235.259187,37.5130133 L235.259187,74.7253844 L219.579381,74.7253844 L219.579381,37.5130133 L212.577805,37.5130133 L212.577805,22.4541898 L219.579381,22.4541898 C219.579381,7.81452935 227.621104,-0.956847241 244.977562,0.0832983013 Z M473.856155,24.1774159 L473.856155,41.0215639 C467.708429,40.0279921 458.983626,42.5119217 458.983626,52.3234438 L458.983626,74.7253844 L444.111098,74.7253844 L444.111098,25.1709878 L458.983626,25.1709878 L458.983626,33.9889381 C460.97077,27.3444263 467.615282,24.1774159 473.856155,24.1774159 Z M75.5114615,4.7406664 L75.5114615,74.7098599 L60.5147362,74.7098599 L60.5147362,4.7406664 L75.5114615,4.7406664 Z M319.805943,4.95801025 L319.914615,74.3683195 L319.805943,74.3217458 L304.933414,74.3217458 L304.933414,4.95801025 L319.805943,4.95801025 Z M138.184112,37.8545536 C131.353305,37.8545536 126.385446,42.5119217 126.385446,49.9481861 C126.385446,57.3844505 131.33778,62.0418186 138.184112,62.0418186 C145.030443,62.0262941 149.982777,57.368926 149.982777,49.9481861 C149.982777,42.5119217 145.030443,37.8545536 138.184112,37.8545536 Z M352.531716,37.8545536 C345.70091,37.8545536 340.73305,42.5119217 340.73305,49.9481861 C340.73305,57.3844505 345.685385,62.0418186 352.531716,62.0418186 C359.378047,62.0262941 364.330382,57.368926 364.330382,49.9481861 C364.330382,42.5119217 359.378047,37.8545536 352.531716,37.8545536 Z M273.154639,37.8545536 C266.820619,37.8545536 261.945907,42.4342989 261.945907,49.3582528 C261.945907,56.2822067 266.820619,60.861952 273.154639,60.861952 C279.48866,60.861952 284.363372,56.2822067 284.363372,49.3582528 C284.363372,42.4342989 279.48866,37.8545536 273.154639,37.8545536 Z M411.851061,35.6655906 C406.200121,35.6655906 402.443178,38.4444869 401.045967,43.489969 L422.361189,43.489969 C420.777683,37.7458817 416.322135,35.6655906 411.851061,35.6655906 Z" fill="#0A0A0A"></path>
				<path d="M112.149424,24.7363001 L93.9546392,49.7308423 L112.64621,74.7253844 L95.6468163,74.7253844 L79.6565191,52.6339351 L77.5296543,49.7308423 L94.6532444,24.7363001 L112.149424,24.7363001 Z M494.783263,24.7207756 L511.906853,49.7153177 L509.779988,52.6184105 L493.789691,74.7098599 L476.790297,74.7098599 L495.481868,49.7153177 L477.287083,24.7207756 L494.783263,24.7207756 Z" fill="#FF6B35"></path>
    </g>
</svg>

<svg xmlns="http://www.w3.org/2000/svg" viewBox="0 0 511.907 76.107">
  <path fill="#0a0a0a" d="M135.203 23.79c6.645 0 11.489 2.281 14.764 6.038v-4.657h14.873v49.554h-14.873v-4.657c-3.275 3.772-8.12 6.04-14.764 6.04-12.978 0-23.69-11.396-23.69-26.16s10.696-26.159 23.69-26.159zM379.187 5.345V74.71h-14.872v-4.658c-3.276 3.773-8.12 6.04-14.764 6.04-12.979 0-23.69-11.395-23.69-26.16 0-14.763 10.696-26.158 23.69-26.158 6.645 0 11.488 2.282 14.764 6.039V5.346zM273.155 23.62c14.329 0 25.848 11.208 25.848 25.74 0 14.53-11.504 25.739-25.848 25.739-14.33 0-25.833-11.209-25.833-25.74 0-14.53 11.503-25.74 25.833-25.74zM26.159 2.66c11.395 0 20.322 5.45 25.367 15.665l-13.382 7.824c-2.375-4.952-5.651-8.026-11.985-8.026-4.952 0-7.436 2.484-7.436 5.247 0 3.167 1.692 5.356 12.481 8.616l.632.191c.634.191 1.27.385 1.909.584l.638.2.319.102.637.207c9.24 3.022 18.159 7.454 18.159 20.218 0 13.382-10.697 21.3-25.771 21.3C13.18 74.803 3.866 67.864 0 57.664l13.677-7.933c2.484 5.744 6.738 9.61 14.562 9.61 7.53 0 9.408-2.966 9.408-5.651 0-4.254-3.959-5.946-14.376-8.818C12.98 42 2.872 37.047 2.872 23.774c0-13.382 11.302-21.114 23.287-21.114zm385.785 19.81c14.47 0 25.166 11.193 25.166 26.159 0 2.08-.202 4.067-.59 5.946h-35.18c1.895 5.17 6.444 6.955 11.893 6.955 4.067 0 7.53-1.584 9.516-3.773l11.892 6.83c-4.86 6.739-12.187 10.2-21.61 10.2-16.953 0-27.447-11.395-27.447-26.158 0-14.764 10.696-26.16 26.36-26.16zM205.484.083v15.06c-5.854-.529-9.72 1.257-9.72 7.311h9.72v15.059h-9.72v37.212h-15.68V37.513h-7V22.454h7c0-14.64 8.043-23.41 25.4-22.37zm39.494 0v15.06c-5.853-.529-9.719 1.257-9.719 7.311h9.719v15.059h-9.719v37.212h-15.68V37.513h-7.001V22.454h7.001c0-14.64 8.042-23.41 25.399-22.37zm228.878 24.094v16.845c-6.148-.994-14.872 1.49-14.872 11.301v22.402H444.11V25.171h14.873v8.818c1.987-6.645 8.631-9.812 14.872-9.812zM75.511 4.741V74.71H60.515V4.74zm244.295.217.109 69.41-.11-.046h-14.872V4.958zM138.184 37.855c-6.83 0-11.799 4.657-11.799 12.093s4.953 12.094 11.8 12.094c6.845-.016 11.798-4.673 11.798-12.094 0-7.436-4.953-12.093-11.799-12.093zm214.348 0c-6.831 0-11.799 4.657-11.799 12.093s4.952 12.094 11.799 12.094c6.846-.016 11.798-4.673 11.798-12.094 0-7.436-4.952-12.093-11.798-12.093zm-79.377 0c-6.334 0-11.21 4.58-11.21 11.503 0 6.924 4.876 11.504 11.21 11.504 6.334 0 11.208-4.58 11.208-11.504 0-6.924-4.874-11.503-11.208-11.503zm138.696-2.19c-5.65 0-9.408 2.78-10.805 7.825h21.315c-1.583-5.744-6.039-7.824-10.51-7.824z"/>
  <path fill="#ff6b35" d="M112.15 24.736 93.954 49.731l18.691 24.994h-17l-15.99-22.091-2.126-2.903 17.123-24.995zm382.633-.015 17.124 24.994-2.127 2.903-15.99 22.092h-17l18.692-24.995-18.195-24.994z"/>
</svg>
